src/icon/animals/koala.svg

<svg enable-background="new 0 0 24 24" viewBox="0 0 24 24" xmlns="http://www.w3.org/2000/svg"><path d="m22 6c0-2.2-1.8-4-4-4-1.6 0-2.9.9-3.6 2.3-.8-.2-1.6-.3-2.4-.3s-1.6.1-2.4.3c-.7-1.4-2-2.3-3.6-2.3-2.2 0-4 1.8-4 4 0 1.1.4 2.1 1.2 2.8-.8 1.3-1.2 2.7-1.2 4.2 0 5 4.5 9 10 9s10-4 10-9c0-1.5-.4-2.9-1.2-4.2.8-.7 1.2-1.7 1.2-2.8zm-4-2c1.1 0 2 .9 2 2 0 .4-.1.8-.4 1.2-.9-1-2-1.7-3.3-2.3.4-.5 1-.9 1.7-.9zm-12 0c.7 0 1.3.4 1.7.9-1.3.5-2.4 1.3-3.3 2.3-.3-.4-.4-.8-.4-1.2 0-1.1.9-2 2-2zm2 8c-.6 0-1-.4-1-1s.4-1 1-1 1 .4 1 1-.4 1-1 1zm4 8c-1.1 0-2-.9-2-2h4c0 1.1-.9 2-2 2zm.9-3h-1.9c-1.5 0-2.6-1.5-2.1-2.9l1.7-5.1c.4-1.3 2.2-1.3 2.6 0l1.7 5.1c.6 1.4-.4 2.9-2 2.9zm3.1-5c-.6 0-1-.4-1-1s.4-1 1-1 1 .4 1 1-.4 1-1 1z"/></svg>

<?xml version="1.0" encoding="utf-8"?>
<!-- Generator: Adobe Illustrator 18.0.0, SVG Export Plug-In . SVG Version: 6.00 Build 0)  -->
<!DOCTYPE svg PUBLIC "-//W3C//DTD SVG 1.1//EN" "http://www.w3.org/Graphics/SVG/1.1/DTD/svg11.dtd">
<svg version="1.1" id="Layer_1" xmlns="http://www.w3.org/2000/svg" xmlns:xlink="http://www.w3.org/1999/xlink" x="0px" y="0px"
	 viewBox="0 0 24 24" enable-background="new 0 0 24 24" xml:space="preserve">
<path d="M22,6c0-2.2-1.8-4-4-4c-1.6,0-2.9,0.9-3.6,2.3C13.6,4.1,12.8,4,12,4c-0.8,0-1.6,0.1-2.4,0.3C8.9,2.9,7.6,2,6,2
	C3.8,2,2,3.8,2,6c0,1.1,0.4,2.1,1.2,2.8C2.4,10.1,2,11.5,2,13c0,5,4.5,9,10,9c5.5,0,10-4,10-9c0-1.5-0.4-2.9-1.2-4.2
	C21.6,8.1,22,7.1,22,6z M18,4c1.1,0,2,0.9,2,2c0,0.4-0.1,0.8-0.4,1.2c-0.9-1-2-1.7-3.3-2.3C16.7,4.4,17.3,4,18,4z M6,4
	c0.7,0,1.3,0.4,1.7,0.9C6.4,5.4,5.3,6.2,4.4,7.2C4.1,6.8,4,6.4,4,6C4,4.9,4.9,4,6,4z M8,12c-0.6,0-1-0.4-1-1c0-0.6,0.4-1,1-1
	c0.6,0,1,0.4,1,1C9,11.6,8.6,12,8,12z M12,20c-1.1,0-2-0.9-2-2h4C14,19.1,13.1,20,12,20z M12.9,17h-1.9c-1.5,0-2.6-1.5-2.1-2.9
	l1.7-5.1c0.4-1.3,2.2-1.3,2.6,0l1.7,5.1C15.5,15.5,14.5,17,12.9,17z M16,12c-0.6,0-1-0.4-1-1c0-0.6,0.4-1,1-1s1,0.4,1,1
	C17,11.6,16.6,12,16,12z"/>
</svg>
